!!!OTL: Der Reiter und sein Liebchen (53a), S. 167
!!!id: T0192V
**kern
*clefG2
*k[f#]
*G:
{4d
=1
4.g
8f#
4b
=2
4.a
8g
4a
=3
4.b
8cc
4b
=4
4a}
4r
=5
{4d
=6
4.g
8f#
4b
=7
4.a
8g
4a
=8
4.b
8cc
4b
=9
4a}
4r
=10
{8g
8b
=11
4.dd
8dd
8dd
8cc
=12
4.b
8a}
=13
{4g
=14
4.a
8g
4d
=15
8g
8b
4dd}
=16
{4dd
=17
4.ee
8cc
8cc
16ee
16ee
=18
4.dd
8b}
=19
{4b
=20
4.cc
8b
4a
=21
4g}
4r
==
*-
!!!minrhy: 16
!!!meters: 3/4 ]  ZZ[6
!!!cut: Der Reiter und sein Liebchen (53a), S. 167
!!!reg: Luxemburg
!!!trd: Singendes Volk, Esch-Alzette 1937 posth.
!!!rhy1: X__  X__.X_X__  X__.X_X__  X__.X_X__  X__0_   (x2)
!!!rhy2: X__  X__.X_X__  X__.X_X__  X__.X_X__  X__0_
!!!key: T0192V 16  G 3/4 ]  ZZ[6
!!!mod: HEPTATONIK IONISCH]  AMBITUS[9
!!!kad: 222531
!!!akz: 1232_1232_53_21_65_41_
!!!fot: 'a__a__b__c__cs"cs"
!!!for: 'a__a__b__c__d__aw_
!!!fok: 'Ma_Ma_^a_Va_\__\__
!! PHRAS[AUFTAKTIG]
!!!fkt: Liebeslieder
!!!bem: K&uuml;ntzig
!! THILL, Mathias:
!! PR[22] 2K[3] 2G[8] 3K[8] 3G[8] 4A[6] 4Ü[0] 5A[0] 6K[0] 6G[0]
!! 7K[0] 7G[0] 8A[0] MEHR[0] SI[33] ABS[36] SR[11] SP[22]
!! ST[12] 2k[11] 2g[31] 3k[0] 3g[0] 4d[0] 4ü[0] 5d[3] 6k[0] 6g[0]
!! 7k[0] 7g[0] 8d[0] mehr[0] si[44] dm[-11] sr[42] sp[3]
!! 1F[31] 2F[54] 3F[0] 4F[0] LF[0] 2P[15] 3P[0] 4P[0] TRI[0] DF[3] AB[39]
!! TF[0] U3K[0] U3[0] U4[0] U4Ü[0] U5[3] U6K[0] U6[0] U7K[0] U7[3]
!! N1[27] N2K[0] N2[19] N3K[0] N3[19] N4[11] N4Ü[0] N5[14] N6K[0] N6[5]
!!!n7k: 0] N7[0] O1[0] O2K[0] O2[0] O3K[0] O3[0] HÖ[0
!!!RNB: symbol: &uuml;  = u umlaut (UTF-8: Ã¼)
